src/assets/Gas.svg

<svg width="16" height="16" viewBox="0 0 16 16" fill="none" xmlns="http://www.w3.org/2000/svg">
<mask id="path-1-inside-1_5390_21730" fill="white">
<path d="M1 2C1 0.895313 1.89531 0 3 0H8C9.10312 0 10 0.895313 10 2V8H10.25C11.7687 8 13 9.23125 13 10.75V11.75C13 12.1656 13.3344 12.5 13.75 12.5C14.1656 12.5 14.5 12.1656 14.5 11.75V6.90938C13.6375 6.71563 13 5.93125 13 5V3L12 2C11.725 1.72375 11.725 1.27625 12 1C12.275 0.72375 12.725 0.72375 13 1L15.4156 3.41563C15.7906 3.79063 16 4.29688 16 4.82812V11.75C16 12.9937 14.9937 14 13.75 14C12.5063 14 11.5 12.9937 11.5 11.75V10.75C11.5 10.0594 10.9406 9.47188 10.25 9.47188H10V14C10.5531 14 11 14.4469 11 15C11 15.5531 10.5531 16 10 16H1C0.447812 16 0 15.5531 0 15C0 14.4469 0.447812 14 1 14V2ZM3 5.5C3 5.775 3.225 6 3.5 6H7.5C7.775 6 8 5.775 8 5.5V2.5C8 2.22375 7.775 2 7.5 2H3.5C3.225 2 3 2.22375 3 2.5V5.5Z"/>
</mask>
<path d="M1 2C1 0.895313 1.89531 0 3 0H8C9.10312 0 10 0.895313 10 2V8H10.25C11.7687 8 13 9.23125 13 10.75V11.75C13 12.1656 13.3344 12.5 13.75 12.5C14.1656 12.5 14.5 12.1656 14.5 11.75V6.90938C13.6375 6.71563 13 5.93125 13 5V3L12 2C11.725 1.72375 11.725 1.27625 12 1C12.275 0.72375 12.725 0.72375 13 1L15.4156 3.41563C15.7906 3.79063 16 4.29688 16 4.82812V11.75C16 12.9937 14.9937 14 13.75 14C12.5063 14 11.5 12.9937 11.5 11.75V10.75C11.5 10.0594 10.9406 9.47188 10.25 9.47188H10V14C10.5531 14 11 14.4469 11 15C11 15.5531 10.5531 16 10 16H1C0.447812 16 0 15.5531 0 15C0 14.4469 0.447812 14 1 14V2ZM3 5.5C3 5.775 3.225 6 3.5 6H7.5C7.775 6 8 5.775 8 5.5V2.5C8 2.22375 7.775 2 7.5 2H3.5C3.225 2 3 2.22375 3 2.5V5.5Z" stroke="#9B9BA7" stroke-width="4" mask="url(#path-1-inside-1_5390_21730)"/>
</svg>

<svg xmlns="http://www.w3.org/2000/svg" width="16" height="16" fill="none"><mask id="a" fill="#fff"><path d="M1 2a2 2 0 0 1 2-2h5a2 2 0 0 1 2 2v6h.25A2.75 2.75 0 0 1 13 10.75v1c0 .416.334.75.75.75s.75-.334.75-.75V6.91A1.946 1.946 0 0 1 13 5V3l-1-1a.707.707 0 1 1 1-1l2.416 2.416c.375.375.584.88.584 1.412v6.922A2.249 2.249 0 0 1 13.75 14a2.249 2.249 0 0 1-2.25-2.25v-1c0-.69-.56-1.278-1.25-1.278H10V14a.999.999 0 1 1 0 2H1a1 1 0 1 1 0-2zm2 3.5c0 .275.225.5.5.5h4c.275 0 .5-.225.5-.5v-3a.5.5 0 0 0-.5-.5h-4a.5.5 0 0 0-.5.5z"/></mask><path stroke="#9B9BA7" stroke-width="4" d="M1 2a2 2 0 0 1 2-2h5a2 2 0 0 1 2 2v6h.25A2.75 2.75 0 0 1 13 10.75v1c0 .416.334.75.75.75s.75-.334.75-.75V6.91A1.946 1.946 0 0 1 13 5V3l-1-1a.707.707 0 1 1 1-1l2.416 2.416c.375.375.584.88.584 1.412v6.922A2.249 2.249 0 0 1 13.75 14a2.249 2.249 0 0 1-2.25-2.25v-1c0-.69-.56-1.278-1.25-1.278H10V14a.999.999 0 1 1 0 2H1a1 1 0 1 1 0-2zm2 3.5c0 .275.225.5.5.5h4c.275 0 .5-.225.5-.5v-3a.5.5 0 0 0-.5-.5h-4a.5.5 0 0 0-.5.5z" mask="url(#a)"/></svg>
